frontend/src/assets/logo_final.svg

<?xml version="1.0" encoding="UTF-8"?>
<svg xmlns="http://www.w3.org/2000/svg" xmlns:xlink="http://www.w3.org/1999/xlink" width="1400px" height="1400px" viewBox="0 0 1400 1400" version="1.1">
<g id="surface1">
<path style=" stroke:none;fill-rule:nonzero;fill:rgb(13.725491%,12.156863%,12.54902%);fill-opacity:1;" d="M 532.144531 842.3125 L 532.144531 835.503906 L 522.171875 824.492188 L 522.171875 817.332031 L 528.753906 824.683594 L 532.144531 820.894531 L 524.984375 813.027344 L 517.59375 821.34375 L 517.59375 826.964844 L 528.347656 838.972656 L 525.625 841.960938 L 521.421875 837.207031 L 517.710938 841.382812 L 525.332031 849.792969 Z M 562.808594 813.0625 L 548.691406 813.0625 L 543.589844 818.777344 L 549.996094 818.777344 L 549.996094 842.3125 L 547.9375 844.625 L 552.574219 849.792969 L 557.242188 844.625 L 555.15625 842.3125 L 555.15625 818.777344 L 557.707031 818.777344 Z M 581.984375 831.652344 L 577.546875 831.652344 L 577.546875 819.324219 L 581.984375 824.332031 Z M 589.171875 844.625 L 587.171875 842.3125 L 587.171875 820.894531 L 580.070312 813.0625 L 572.359375 821.539062 L 572.359375 842.3125 L 570.273438 844.625 L 574.882812 849.792969 L 579.578125 844.625 L 577.546875 842.3125 L 577.546875 837.625 L 581.984375 837.625 L 581.984375 842.3125 L 579.925781 844.625 L 584.507812 849.792969 Z M 617.046875 821.34375 L 609.59375 813.027344 L 602.492188 820.894531 L 602.492188 842.3125 L 609.21875 849.792969 L 616.902344 841.382812 L 613.132812 837.304688 L 608.898438 841.894531 L 607.59375 840.515625 L 607.59375 819.515625 L 613.160156 825.679688 Z M 648.34375 844.625 L 646.34375 842.3125 L 646.34375 833.449219 L 640.546875 827.0625 L 646.34375 820.640625 L 646.34375 813.0625 L 636.722656 823.65625 L 636.722656 813.0625 L 631.53125 818.777344 L 631.53125 842.3125 L 629.445312 844.625 L 634.054688 849.792969 L 638.75 844.625 L 636.722656 842.3125 L 636.722656 831.300781 L 641.15625 836.242188 L 641.15625 842.3125 L 639.097656 844.625 L 643.679688 849.792969 Z M 690.046875 840.515625 L 690.046875 834.15625 L 694.769531 834.15625 L 694.769531 838.136719 L 691.351562 841.960938 Z M 697.03125 818.582031 L 692.015625 813.027344 L 684.886719 820.894531 L 684.886719 842.3125 L 691.699219 849.792969 L 699.929688 840.644531 L 699.929688 834.15625 L 704.917969 828.632812 L 699.929688 828.632812 L 699.929688 823.464844 L 695.292969 828.632812 L 690.046875 828.632812 L 690.046875 819.324219 L 693.148438 822.917969 Z M 755.414062 842.3125 L 755.414062 835.503906 L 745.441406 824.492188 L 745.441406 817.332031 L 752.023438 824.683594 L 755.414062 820.894531 L 748.253906 813.027344 L 740.863281 821.34375 L 740.863281 826.964844 L 751.617188 838.972656 L 748.890625 841.960938 L 744.6875 837.207031 L 740.976562 841.382812 L 748.601562 849.792969 Z M 786.078125 813.0625 L 771.960938 813.0625 L 766.855469 818.777344 L 773.265625 818.777344 L 773.265625 842.3125 L 771.207031 844.625 L 775.84375 849.792969 L 780.511719 844.625 L 778.421875 842.3125 L 778.421875 818.777344 L 780.976562 818.777344 Z M 805.085938 838.84375 L 802.273438 841.960938 L 800.941406 840.515625 L 800.941406 819.324219 L 805.085938 823.945312 Z M 810.246094 841.382812 L 810.246094 821.089844 L 802.941406 813.027344 L 795.839844 820.894531 L 795.839844 842.3125 L 802.5625 849.792969 Z M 841.210938 844.625 L 839.210938 842.3125 L 839.210938 820.894531 L 832.109375 813.0625 L 824.398438 821.539062 L 824.398438 842.3125 L 822.3125 844.625 L 826.921875 849.792969 L 831.617188 844.625 L 829.589844 842.3125 L 829.589844 819.324219 L 834.023438 824.332031 L 834.023438 842.3125 L 831.964844 844.625 L 836.546875 849.792969 Z M 869.085938 821.25 L 861.636719 813.027344 L 854.53125 820.894531 L 854.53125 842.3125 L 861.257812 849.792969 L 868.941406 841.382812 L 865.171875 837.304688 L 860.96875 841.960938 L 859.632812 840.515625 L 859.632812 834.15625 L 862.386719 834.15625 L 867.34375 828.632812 L 859.632812 828.632812 L 859.632812 819.324219 L 865.171875 825.617188 Z M 896.355469 842.3125 L 896.355469 835.503906 L 886.382812 824.492188 L 886.382812 817.332031 L 892.964844 824.683594 L 896.355469 820.894531 L 889.195312 813.027344 L 881.804688 821.34375 L 881.804688 826.964844 L 892.558594 838.972656 L 889.832031 841.960938 L 885.628906 837.207031 L 881.917969 841.382812 L 889.542969 849.792969 Z M 687.398438 790.707031 L 669.65625 771.054688 C 666.726562 767.8125 666.726562 762.558594 669.65625 759.316406 L 722.117188 701.207031 C 723.980469 699.144531 727 699.144531 728.863281 701.207031 L 741.511719 715.21875 C 748.121094 722.539062 748.082031 734.417969 741.417969 741.675781 C 727.765625 756.550781 706.246094 780.058594 696.890625 790.648438 C 694.292969 793.589844 690.023438 793.617188 687.398438 790.707031 M 660.910156 700.925781 L 693.394531 664.945312 C 696.027344 662.027344 700.304688 662.027344 702.941406 664.945312 L 720.195312 684.054688 C 722.828125 686.976562 722.828125 691.710938 720.195312 694.632812 L 687.582031 730.753906 C 684.925781 733.695312 680.617188 733.675781 677.988281 730.703125 C 673.171875 725.242188 665.761719 716.875 660.90625 711.5 C 658.269531 708.574219 658.273438 703.847656 660.910156 700.925781 M 705.585938 651.566406 L 723.015625 632.257812 C 725.773438 629.203125 730.246094 629.203125 733 632.257812 L 760.105469 662.285156 C 765.839844 668.632812 765.839844 678.925781 760.105469 685.273438 L 744.472656 702.589844 L 705.578125 659.328125 C 703.648438 657.183594 703.648438 653.710938 705.585938 651.566406 M 660.660156 631.882812 L 701.175781 586.738281 C 703.828125 583.78125 708.148438 583.773438 710.808594 586.722656 L 729.0625 606.941406 C 731.457031 609.59375 731.457031 613.890625 729.0625 616.542969 L 679.121094 671.867188 C 676.550781 674.710938 672.378906 674.6875 669.835938 671.8125 L 660.570312 661.355469 C 653.3125 653.160156 653.351562 640.023438 660.660156 631.882812 "/>
</g>
</svg>

<?xml version="1.0" encoding="UTF-8" standalone="no"?>
<svg
   width="292.18762"
   height="204.64253"
   viewBox="0 0 378.76173 265.27736"
   version="1.1"
   id="svg1"
   sodipodi:docname="logo_final (1).svg"
   inkscape:version="1.4.2 (f4327f4, 2025-05-13)"
   xmlns:inkscape="http://www.inkscape.org/namespaces/inkscape"
   xmlns:sodipodi="http://sodipodi.sourceforge.net/DTD/sodipodi-0.dtd"
   xmlns="http://www.w3.org/2000/svg"
   xmlns:svg="http://www.w3.org/2000/svg">
  <defs
     id="defs1" />
  <sodipodi:namedview
     id="namedview1"
     pagecolor="#ffffff"
     bordercolor="#000000"
     borderopacity="0.25"
     inkscape:showpageshadow="2"
     inkscape:pageopacity="0.0"
     inkscape:pagecheckerboard="0"
     inkscape:deskcolor="#d1d1d1"
     inkscape:zoom="1.3611111"
     inkscape:cx="168.61224"
     inkscape:cy="149.5102"
     inkscape:window-width="3840"
     inkscape:window-height="2054"
     inkscape:window-x="2869"
     inkscape:window-y="-11"
     inkscape:window-maximized="1"
     inkscape:current-layer="surface1" />
  <g
     id="surface1"
     transform="translate(-517.59375,-584.51562)">
    <path
       style="fill:#211e1e;fill-opacity:1;fill-rule:nonzero;stroke:none"
       d="m 532.14453,842.3125 v -6.80859 l -9.97266,-11.01172 v -7.16016 l 6.58204,7.35156 3.39062,-3.78906 -7.16016,-7.86719 -7.39062,8.31641 v 5.62109 l 10.75391,12.00782 -2.72266,2.98828 -4.20313,-4.75391 -3.71093,4.17578 7.62109,8.41016 z m 30.66406,-29.25 h -14.11718 l -5.10157,5.71484 h 6.40625 v 23.53516 l -2.05859,2.3125 4.63672,5.16797 4.66797,-5.16797 -2.08594,-2.3125 v -23.53516 h 2.55078 z m 19.17578,18.58984 h -4.4375 v -12.32812 l 4.4375,5.00781 z m 7.1875,12.97266 -2,-2.3125 v -21.41797 l -7.10156,-7.83203 -7.71094,8.47656 v 20.77344 l -2.08593,2.3125 4.60937,5.16797 4.69531,-5.16797 -2.03125,-2.3125 v -4.6875 h 4.4375 v 4.6875 l -2.05859,2.3125 4.58203,5.16797 z m 27.875,-23.28125 -7.45312,-8.31641 -7.10156,7.86719 v 21.41797 l 6.72656,7.48047 7.68359,-8.41016 -3.76953,-4.07812 -4.23437,4.58984 -1.30469,-1.37891 v -21 l 5.56641,6.16407 z m 31.29688,23.28125 -2,-2.3125 v -8.86328 l -5.79688,-6.38672 5.79688,-6.42188 v -7.57812 l -9.62109,10.59375 V 813.0625 l -5.19141,5.71484 v 23.53516 l -2.08594,2.3125 4.60938,5.16797 4.69531,-5.16797 -2.02734,-2.3125 v -11.01172 l 4.43359,4.94141 v 6.07031 l -2.05859,2.3125 4.58203,5.16797 z m 41.70312,-4.10938 v -6.35937 h 4.72266 v 3.98047 l -3.41797,3.82422 z m 6.98438,-21.93359 -5.01563,-5.55469 -7.1289,7.86719 v 21.41797 l 6.8125,7.48047 8.23047,-9.14844 v -6.48828 l 4.98828,-5.52344 h -4.98828 v -5.16797 l -4.63672,5.16797 h -5.2461 v -9.30859 l 3.10157,3.59375 z m 58.38281,23.73047 v -6.80859 l -9.97265,-11.01172 v -7.16016 l 6.58203,7.35156 3.39062,-3.78906 -7.16015,-7.86719 -7.39063,8.31641 v 5.62109 l 10.75391,12.00782 -2.72657,2.98828 -4.20312,-4.75391 -3.71094,4.17578 7.625,8.41016 z m 30.66406,-29.25 h -14.11718 l -5.10547,5.71484 h 6.41015 v 23.53516 l -2.05859,2.3125 4.63672,5.16797 4.66797,-5.16797 -2.08985,-2.3125 v -23.53516 h 2.55469 z m 19.00782,25.78125 -2.8125,3.11719 -1.33203,-1.44532 v -21.1914 l 4.14453,4.62109 z m 5.16015,2.53906 v -20.29297 l -7.30468,-8.0625 -7.10157,7.86719 v 21.41797 l 6.72266,7.48047 z m 30.96485,3.24219 -2,-2.3125 v -21.41797 l -7.10157,-7.83203 -7.71093,8.47656 v 20.77344 l -2.08594,2.3125 4.60937,5.16797 4.69532,-5.16797 -2.02735,-2.3125 v -22.98828 l 4.4336,5.00781 v 17.98047 l -2.0586,2.3125 4.58203,5.16797 z m 27.875,-23.375 -7.44922,-8.22266 -7.10547,7.86719 v 21.41797 l 6.72656,7.48047 7.6836,-8.41016 -3.76954,-4.07812 -4.20312,4.65625 -1.33594,-1.44532 v -6.35937 h 2.75391 l 4.95703,-5.52344 h -7.71094 v -9.30859 l 5.53906,6.29297 z m 27.26953,21.0625 v -6.80859 l -9.97266,-11.01172 v -7.16016 l 6.58203,7.35156 3.39063,-3.78906 -7.16016,-7.86719 -7.39062,8.31641 v 5.62109 l 10.7539,12.00782 -2.72656,2.98828 -4.20312,-4.75391 -3.71094,4.17578 7.625,8.41016 z M 687.39844,790.70703 669.65625,771.05469 c -2.92969,-3.24219 -2.92969,-8.4961 0,-11.73828 l 52.46094,-58.10938 c 1.86328,-2.0625 4.88281,-2.0625 6.74609,0 l 12.64844,14.01172 c 6.60937,7.32031 6.57031,19.19922 -0.0937,26.45703 -13.65235,14.875 -35.17188,38.38281 -44.52735,48.97266 -2.59765,2.9414 -6.86718,2.96875 -9.49218,0.0586 m -26.48828,-89.78125 32.48437,-35.98047 c 2.63281,-2.91797 6.91016,-2.91797 9.54688,0 l 17.2539,19.10938 c 2.63281,2.92187 2.63281,7.65625 0,10.57812 l -32.61328,36.1211 c -2.65625,2.9414 -6.96484,2.92187 -9.59375,-0.0508 C 673.17192,725.24219 665.76177,716.875 660.9063,711.5 c -2.63672,-2.92578 -2.63281,-7.65234 0.004,-10.57422 m 44.67578,-49.35937 17.42968,-19.3086 c 2.75782,-3.05469 7.23047,-3.05469 9.98438,0 l 27.10547,30.02735 c 5.73437,6.34765 5.73437,16.64062 0,22.98828 l -15.63281,17.3164 -38.89454,-43.26172 c -1.92968,-2.14453 -1.92968,-5.61718 0.008,-7.76171 m -44.92578,-19.6836 40.51562,-45.14453 c 2.65234,-2.95703 6.97266,-2.96484 9.63281,-0.0156 l 18.25391,20.21875 c 2.39453,2.65234 2.39453,6.94921 0,9.60156 l -49.94141,55.32422 c -2.57031,2.84375 -6.74218,2.82031 -9.28515,-0.0547 l -9.26563,-10.45703 c -7.25781,-8.19531 -7.21875,-21.33203 0.0899,-29.47266"
       id="path1" />
  </g>
</svg>
